packages/elvis-assets-icons/icons/svg/src/tree_falling.svg

<svg width="24" height="24" viewBox="0 0 24 24" fill="none" xmlns="http://www.w3.org/2000/svg">
<path d="M19.815 9.75501C20.26 9.48001 20.52 8.98001 20.485 8.45501L20.14 3.16501C20.11 2.69001 19.845 2.26501 19.43 2.02501C19.015 1.78501 18.515 1.77001 18.085 1.98001L13.33 4.33001C12.86 4.56501 12.555 5.03501 12.54 5.56001C12.525 6.08501 12.8 6.57501 13.255 6.84001L13.335 6.88501L9.40501 8.56501C8.90501 8.78001 8.57501 9.25001 8.54501 9.79001C8.51501 10.32 8.77501 10.815 9.22501 11.09L4.40501 13.05C3.90501 13.255 3.55501 13.735 3.52001 14.27C3.48501 14.81 3.76001 15.33 4.23001 15.6L9.13501 18.43L8.06501 20.28C7.87001 20.62 7.98501 21.055 8.32501 21.255C8.43501 21.32 8.56001 21.35 8.68001 21.35C8.92501 21.35 9.16501 21.225 9.29501 20.995L10.365 19.145L15.27 21.975C15.49 22.1 15.735 22.165 15.98 22.165C16.26 22.165 16.535 22.085 16.775 21.925C17.225 21.625 17.465 21.08 17.39 20.55L16.675 15.39C17.14 15.645 17.7 15.62 18.145 15.33C18.595 15.03 18.84 14.51 18.775 13.975L18.265 9.73501L18.345 9.78001C18.805 10.045 19.365 10.035 19.815 9.75501ZM17.745 7.79001C17.51 7.65501 17.22 7.66501 16.995 7.81001C16.77 7.96001 16.65 8.22001 16.68 8.49001L17.36 14.145L16.125 13.435C15.89 13.3 15.595 13.31 15.37 13.46C15.145 13.61 15.025 13.88 15.06 14.15L15.97 20.75L10.45 17.565C10.45 17.565 10.45 17.565 10.445 17.565L4.94001 14.37L11.115 11.86C11.365 11.755 11.54 11.52 11.555 11.25C11.575 10.98 11.435 10.72 11.2 10.585L9.96501 9.87501L15.205 7.64001C15.455 7.53501 15.62 7.29501 15.635 7.03001C15.65 6.76001 15.515 6.50501 15.28 6.37001L13.965 5.61001L18.72 3.26001L19.065 8.55001L17.745 7.79001Z" fill="black"/>
</svg>

<svg width="24" height="24" fill="none" xmlns="http://www.w3.org/2000/svg"><path d="M19.815 9.755c.445-.275.705-.775.67-1.3l-.345-5.29c-.03-.475-.295-.9-.71-1.14a1.425 1.425 0 00-1.345-.045L13.33 4.33a1.421 1.421 0 00-.075 2.51l.08.045-3.93 1.68c-.5.215-.83.685-.86 1.225-.03.53.23 1.025.68 1.3l-4.82 1.96c-.5.205-.85.685-.885 1.22-.035.54.24 1.06.71 1.33l4.905 2.83-1.07 1.85a.717.717 0 00.26.975.7.7 0 00.355.095.703.703 0 00.615-.355l1.07-1.85 4.905 2.83a1.426 1.426 0 001.505-.05c.45-.3.69-.845.615-1.375l-.715-5.16a1.425 1.425 0 002.1-1.415l-.51-4.24.08.045c.46.265 1.02.255 1.47-.025zm-2.07-1.965a.722.722 0 00-.75.02.717.717 0 00-.315.68l.68 5.655-1.235-.71a.72.72 0 00-.755.025.72.72 0 00-.31.69l.91 6.6-5.52-3.185h-.005L4.94 14.37l6.175-2.51a.71.71 0 00.085-1.275l-1.235-.71 5.24-2.235a.712.712 0 00.075-1.27l-1.315-.76 4.755-2.35.345 5.29-1.32-.76z" fill="#000"/></svg>
